!!!OTL: Dongbing
!!!ARE: Asia, China,ÿNingxia, Haiyuan
!! I, 191
!!!SCT: C1428
!!!YEM: Copyright 1995, estate of Helmut Schaffrath.
**kern
*ICvox
*Ivox
*M4/4
*k[f#c#g#]
*A:
{8.a
16b
8cc#
8cc#
8b
16cc#
16b
8.a
16b
=1
8cc#
4cc#
8a
2b}
=2
{8cc#
4cc#
8a
2b}
=3
{8.a
16b
8cc#
8cc#
8b
16cc#
16b
4a
=4
8b
4a
8f#
4.e
8f#}
=5
{8b
8b
8b
8e
4.f#
8b
=6
8f#
8e
8d
8c#
2B}
=7
{8.b
16b
8b
8b
8c#
8e
8c#
8B}
=8
{8.b
16b
8b
8b
8c#
8e
8c#
8B}
=9
{8.b
16b
8b
8b
8a
8b
8ee
8g#
=10
8.f#
16e
8c#
8e
2B}
==
!!!AGN: Xiaodiao. Siji jingse
!!!ONB: ESAC (Essen Associative Code) Database: HUANG
!!!AMT: simple quadruple
!!!AIN: vox
!!!EED: Helmut Schaffrath
!!!EEV: 1.0
*-
